src/assets/images/mito-logo.svg

<svg width="28" height="29" viewBox="0 0 28 29" fill="none" xmlns="http://www.w3.org/2000/svg">
<path d="M27.9283 12.8135H16.1097V0.0852737L11.8888 4.49773V12.8135H0.0702209V17.0562H11.8888V28.9358H16.1097V17.0562H27.9283V12.8135Z" fill="white"/>
</svg>

<svg xmlns="http://www.w3.org/2000/svg" width="28" height="29" fill="none">
  <path fill="#fff" d="M27.928 12.813H16.11V.085l-4.221 4.413v8.316H.07v4.242H11.89v11.88h4.22v-11.88h11.82v-4.243z"/>
</svg>
